X: 5
T: Scarce O' Tatties
R: jig
M: 6/8
L: 1/8
K: Ador
e |: A>ee e>fg | e>dB d>BG | A>ee e>fg | e>dB A2e |
a2 a g>ag | f>gf e>AA | A>ee e>fg | e>dB A2e :|
|: a>eg a2f | g2f e>AA | a>eg a2f | g>fg e>ee |
e>de A>AA | d>ef f>ed | A>ee e>fg | e>dB A2e :|


Tune 95	Setting 95

